dist/img/svg/product_i_6.svg

<svg width="50" height="50" viewBox="0 0 50 50" fill="none" xmlns="http://www.w3.org/2000/svg">
<path d="M6.7888 33.0496C6.25287 31.4061 5.92859 29.6884 5.83301 27.9404M27.591 6.66675C32.5406 6.98734 37.2069 9.07623 40.7161 12.5453C46.4952 18.2586 48.0654 26.6648 45.4233 33.8392M32.09 32.6108C35.3124 29.4252 35.3124 24.2587 32.09 21.073C28.8676 17.8874 23.6415 17.8874 20.4191 21.073C17.1967 24.2587 17.1967 29.4252 20.4191 32.6108C23.6415 35.7965 28.8676 35.7965 32.09 32.6108Z" stroke="#6C757D" stroke-width="2" stroke-linecap="round" stroke-linejoin="round"/>
<path d="M21.9917 24.6992C22.257 24.9734 22.257 25.417 21.9917 25.6912C21.7264 25.9655 21.2973 25.9655 21.032 25.6912C20.7667 25.417 20.7667 24.9734 21.032 24.6992C21.2973 24.4249 21.7264 24.4249 21.9917 24.6992ZM25.8075 21.0389C25.5422 21.3132 25.5422 21.7568 25.8075 22.031C26.0728 22.3053 26.5019 22.3053 26.7672 22.031C27.0325 21.7568 27.0325 21.3132 26.7672 21.0389C26.5019 20.7647 26.0728 20.7647 25.8075 21.0389ZM30.5077 24.6145C30.2424 24.8888 30.2424 25.3323 30.5077 25.6066C30.773 25.8808 31.2021 25.8808 31.4674 25.6066C31.7327 25.3323 31.7327 24.8888 31.4674 24.6145C31.2021 24.3402 30.773 24.3402 30.5077 24.6145ZM28.7684 30.4654C28.5031 30.7397 28.5031 31.1832 28.7684 31.4575C29.0338 31.7318 29.4628 31.7318 29.7281 31.4575C29.9934 31.1832 29.9934 30.7397 29.7281 30.4654C29.4628 30.1912 29.0338 30.1912 28.7684 30.4654ZM22.7745 30.4688C22.5092 30.7431 22.5092 31.1866 22.7745 31.4609C23.0398 31.7351 23.4689 31.7351 23.7342 31.4609C23.9995 31.1866 23.9995 30.7431 23.7342 30.4688C23.4689 30.1945 23.0398 30.1945 22.7745 30.4688Z" fill="#6B3D90"/>
<path d="M7.04201 21.2275C7.31845 21.5185 7.31845 21.9908 7.04201 22.2817C6.76558 22.5726 6.31677 22.5726 6.04034 22.2817C5.7639 21.9908 5.7639 21.5185 6.04034 21.2275C6.31677 20.9366 6.76558 20.9366 7.04201 21.2275ZM20.4573 6.05145C20.1809 6.34237 20.1809 6.8147 20.4573 7.10563C20.7338 7.39655 21.1826 7.39655 21.459 7.10563C21.7354 6.8147 21.7354 6.34237 21.459 6.05145C21.1826 5.76052 20.7338 5.76052 20.4573 6.05145Z" fill="#6B3D90"/>
<path d="M11.4477 13.9582C11.8021 13.5385 12.174 13.1295 12.5635 12.7415C14.4512 10.8442 16.6968 9.34539 19.167 8.33325M7.11436 16.5397C6.51787 17.1392 6.51787 18.1126 7.11436 18.7156C7.71085 19.3187 8.67927 19.3151 9.27927 18.7156C9.87927 18.1161 9.87576 17.1427 9.27927 16.5397C8.68278 15.9366 7.71436 15.9402 7.11436 16.5397Z" stroke="#6C757D" stroke-width="2" stroke-linecap="round" stroke-linejoin="round"/>
<path d="M20.2522 43.0927H34.2078C35.1515 43.0927 36.0172 43.5627 36.5773 44.3133C37.6433 45.7401 39.3474 46.6632 41.2688 46.6632C43.6994 46.6632 45.7837 45.1856 46.6663 43.0825H42.2702C41.021 43.0825 40.006 42.0716 40.006 40.8273C40.006 39.583 41.021 38.572 42.2702 38.572H46.6528C45.7634 36.4858 43.6892 35.0218 41.2688 35.0218C39.3542 35.0218 37.6568 35.9381 36.5909 37.3548C36.0274 38.102 35.1651 38.5686 34.2282 38.5686H34.1196M15.8765 43.1197H15.7678C14.8309 43.1197 13.9653 43.5829 13.4051 44.3336C12.3392 45.7503 10.6419 46.6666 8.72725 46.6666C6.31023 46.6666 4.23267 45.2025 3.34326 43.1163H7.72581C8.97506 43.1163 9.99008 42.1054 9.99008 40.8611C9.99008 39.6168 8.97506 38.6058 7.72581 38.6058H3.33308C4.21231 36.5027 6.29665 35.0252 8.73064 35.0252C10.652 35.0252 12.3562 35.9482 13.4221 37.3751C13.9856 38.1291 14.8513 38.5957 15.7916 38.5957H15.8799H34.2282M24.7502 28.0565C23.8574 27.1673 23.8574 25.7269 24.7502 24.8376C25.643 23.9484 27.0891 23.9484 27.982 24.8376C28.8748 25.7269 28.8748 27.1673 27.982 28.0565C27.0891 28.9458 25.643 28.9458 24.7502 28.0565ZM4.37525 24.1242L8.71367 24.0836L23.9932 8.86828L24.0339 4.3713C24.0407 3.79311 23.5722 3.32989 22.9918 3.33327L15.7509 3.39751L3.39758 15.6983L3.33308 23.0862C3.32629 23.6644 3.79476 24.1276 4.37525 24.1242Z" stroke="#6B3D90" stroke-width="2" stroke-linecap="round" stroke-linejoin="round"/>
</svg>

<svg width="50" height="50" viewBox="0 0 50 50" fill="none" xmlns="http://www.w3.org/2000/svg"><path d="M6.789 33.05a20.006 20.006 0 01-.956-5.11M27.591 6.667c4.95.32 9.616 2.41 13.125 5.878 5.78 5.714 7.35 14.12 4.707 21.294M32.09 32.611a8.094 8.094 0 000-11.538c-3.222-3.186-8.449-3.186-11.67 0a8.094 8.094 0 000 11.538c3.221 3.186 8.448 3.186 11.67 0z" stroke="#6C757D" stroke-width="2" stroke-linecap="round" stroke-linejoin="round"/><path d="M21.992 24.7a.718.718 0 010 .991.662.662 0 01-.96 0 .718.718 0 010-.992.662.662 0 01.96 0zm3.816-3.661a.718.718 0 000 .992.662.662 0 00.96 0 .718.718 0 000-.992.663.663 0 00-.96 0zm4.7 3.575a.718.718 0 000 .993.663.663 0 00.96 0 .718.718 0 000-.992.662.662 0 00-.96 0zm-1.74 5.851a.718.718 0 000 .992.662.662 0 00.96 0 .718.718 0 000-.992.663.663 0 00-.96 0zm-5.994.004a.718.718 0 000 .992.663.663 0 00.96 0 .718.718 0 000-.992.662.662 0 00-.96 0zM7.042 21.227a.774.774 0 010 1.055.684.684 0 01-1.002 0 .774.774 0 010-1.055.684.684 0 011.002 0zM20.457 6.051a.774.774 0 000 1.055c.277.29.726.29 1.002 0a.774.774 0 000-1.055.684.684 0 00-1.002 0z" fill="#6B3D90"/><path d="M11.448 13.958a20.03 20.03 0 017.72-5.625M7.113 16.54a1.547 1.547 0 000 2.176c.597.603 1.565.6 2.165 0 .6-.6.597-1.573 0-2.176a1.525 1.525 0 00-2.165 0z" stroke="#6C757D" stroke-width="2" stroke-linecap="round" stroke-linejoin="round"/><path d="M20.252 43.093h13.956c.944 0 1.81.47 2.37 1.22a5.842 5.842 0 004.69 2.35 5.85 5.85 0 005.398-3.58H42.27a2.261 2.261 0 01-2.264-2.256 2.261 2.261 0 012.264-2.255h4.383a5.848 5.848 0 00-5.384-3.55 5.839 5.839 0 00-4.678 2.333c-.564.747-1.426 1.214-2.363 1.214h-.108m-18.243 4.55h-.11c-.936 0-1.802.464-2.362 1.215a5.839 5.839 0 01-4.678 2.333 5.852 5.852 0 01-5.384-3.55h4.383a2.262 2.262 0 002.264-2.256 2.261 2.261 0 00-2.264-2.255H3.333a5.843 5.843 0 015.398-3.58c1.921 0 3.625.922 4.691 2.35.564.753 1.43 1.22 2.37 1.22h18.436m-9.478-10.54a2.269 2.269 0 010-3.218 2.291 2.291 0 013.232 0c.893.889.893 2.33 0 3.218a2.29 2.29 0 01-3.232 0zM4.375 24.125l4.339-.04 15.28-15.216.04-4.497a1.028 1.028 0 00-1.042-1.038l-7.241.065-12.353 12.3-.065 7.388a1.028 1.028 0 001.042 1.038z" stroke="#6B3D90" stroke-width="2" stroke-linecap="round" stroke-linejoin="round"/></svg>
